X:1
T:Title
%%score ( 1 2 ) { 3 | 4 }
L:1/8
Q:1/4=125
M:2/2
K:E
V:1 treble nm="Grand Piano, Soprano"
V:2 treble 
V:3 bass nm="Choir Pad, Faith (Tuckerman), CM"
V:4 bass 
V:1
 [EG]4 [EG]2 [EG]2 | [CF]2 E2 [DA]4 | [EG]4 [Ec]4- | [Ec]4 [EB]4 | [EB]2 [EG]2 [DF]4 | %5
w: By~Samuel~Parkman~Tuckerman,~1848 * *|||||
 [Ec]4 [DB]4 | [EG]4 [FB]2 [FA]2 | [EG]2 [DF]2 E4 | .c4 z4 | z8 | [EB]2 [FA]2 [EG]4 | [DF]4 E4- | %12
w: |||||||
 E8 |] %13
w: |
V:2
 x8 | x8 | x8 | x8 | x8 | x8 | x8 | x8 | E2- [EB]2 [FA]4- | [FA]4 [EG]4 | x8 | x8 | x8 |] %13
V:3
 B,4 B,2 B,2 | A,2 B,2 A,4 | B,4 A,4- | A,4 B,4 | B,2 B,2 B,4 | ^A,4 B,4 | B,4 B,2 B,2 | %7
 B,2 A,2 G,4 | A,2 B,2[K:treble] C4- | C4 C4 | B,2 C2[K:bass] B,4 | B,2 A,2 G,4- | G,8 |] %13
V:4
 E,4 E,2 E,2 | z2 G,2 F,4 | E,4 z4 | z4 G,4 | G,2 E,2 F,4 | F,4 B,,4 | E,4 D,2 D,2 | E,2 B,,2 C,4 | %8
 z2 G,2 F,4- | F,4 C,4 | G,,2 A,,2 B,,4 | B,,4 E,4- | E,8 |] %13

